nix/lace-blockchain-services/internal/lace-blockchain-services/cardano.svg

<?xml version="1.0"?>
<svg height="256" viewBox="0 0 256 256" width="256" xmlns="http://www.w3.org/2000/svg">
  <g>
    <circle
       style="fill: #3468d1;"
       cx="128"
       cy="128"
       r="128" />
    <path
       style="fill: #fff; fill-rule: evenodd;"
       d="m 265.727,717.735 a 12.652,12.652 0 1 1 -12.654,12.652 12.654,12.654 0 0 1 12.654,-12.652 z m 30.546,0 a 12.652,12.652 0 1 1 -12.655,12.652 12.654,12.654 0 0 1 12.655,-12.652 z m 0,53.226 a 12.652,12.652 0 1 1 -12.655,12.652 12.653,12.653 0 0 1 12.655,-12.652 z m -30.546,0 a 12.652,12.652 0 1 1 -12.654,12.652 12.653,12.653 0 0 1 12.654,-12.652 z m -15.709,-26.177 a 12.652,12.652 0 1 1 -12.654,12.652 12.654,12.654 0 0 1 12.654,-12.652 z m 61.964,0 a 12.652,12.652 0 1 1 -12.655,12.652 12.653,12.653 0 0 1 12.655,-12.652 z m 14.4,-21.813 a 7.853,7.853 0 1 1 -7.855,7.853 7.853,7.853 0 0 1 7.855,-7.853 z m 0,52.352 a 7.853,7.853 0 1 1 -7.855,7.853 7.853,7.853 0 0 1 7.855,-7.853 z m -90.764,0 a 7.853,7.853 0 1 1 -7.854,7.853 7.854,7.854 0 0 1 7.854,-7.853 z m 0,-52.352 a 7.853,7.853 0 1 1 -7.854,7.853 7.854,7.854 0 0 1 7.854,-7.853 z M 281,696.794 a 7.853,7.853 0 1 1 -7.855,7.853 7.853,7.853 0 0 1 7.855,-7.853 z m 0,104.706 a 7.853,7.853 0 1 1 -7.855,7.853 A 7.853,7.853 0 0 1 281,801.5 Z m 33.6,7.853 a 6.544,6.544 0 1 1 -6.546,6.544 6.544,6.544 0 0 1 6.546,-6.544 z m -67.2,0 a 6.544,6.544 0 1 1 -6.546,6.544 6.544,6.544 0 0 1 6.546,-6.544 z m 0,-117.794 a 6.544,6.544 0 1 1 -6.546,6.544 6.544,6.544 0 0 1 6.546,-6.544 z m 67.2,0 a 6.544,6.544 0 1 1 -6.546,6.544 6.544,6.544 0 0 1 6.546,-6.544 z m 34.036,58.461 a 6.544,6.544 0 1 1 -6.545,6.544 6.545,6.545 0 0 1 6.545,-6.544 z m -135.273,0 a 6.544,6.544 0 1 1 -6.545,6.544 6.544,6.544 0 0 1 6.545,-6.544 z m -4.8,-40.138 a 5.236,5.236 0 1 1 -5.236,5.235 5.236,5.236 0 0 1 5.236,-5.235 z m 0,83.765 a 5.236,5.236 0 1 1 -5.236,5.235 5.236,5.236 0 0 1 5.236,-5.235 z m 144.873,0 a 5.236,5.236 0 1 1 -5.236,5.235 5.236,5.236 0 0 1 5.236,-5.235 z m 0,-83.765 a 5.236,5.236 0 1 1 -5.236,5.235 5.236,5.236 0 0 1 5.236,-5.235 z M 281,668 a 5.236,5.236 0 1 1 -5.237,5.235 A 5.235,5.235 0 0 1 281,668 Z m 0,167.529 a 5.236,5.236 0 1 1 -5.237,5.236 5.236,5.236 0 0 1 5.237,-5.236 z m 46.254,-3.49 a 4.363,4.363 0 1 1 -4.363,4.363 4.363,4.363 0 0 1 4.363,-4.363 z m -92.509,0 a 4.363,4.363 0 1 1 -4.363,4.363 4.363,4.363 0 0 1 4.363,-4.363 z m 0,-158.8 a 4.363,4.363 0 1 1 -4.363,4.363 4.363,4.363 0 0 1 4.363,-4.367 z m 92.509,0 a 4.363,4.363 0 1 1 -4.363,4.363 4.363,4.363 0 0 1 4.363,-4.367 z m 45.382,79.4 a 4.363,4.363 0 1 1 -4.363,4.361 4.363,4.363 0 0 1 4.363,-4.363 z m -183.273,0 A 4.363,4.363 0 1 1 185,757 a 4.363,4.363 0 0 1 4.363,-4.363 z"
       transform="translate(-152,-629)" />
  </g>
</svg>

<?xml version="1.0" ?><svg height="256" viewBox="0 0 256 256" width="256" xmlns="http://www.w3.org/2000/svg"><defs><style>
      .cls-1 {
        fill: #3468d1;
      }

      .cls-2 {
        fill: #fff;
        fill-rule: evenodd;
      }
    </style></defs><g data-name="cardano ada" id="cardano_ada"><g data-name="cardano ada" id="cardano_ada-2"><circle class="cls-1" cx="128" cy="128" data-name="Эллипс 6" id="Эллипс_6" r="128"/><path class="cls-2" d="M265.727,717.735a12.652,12.652,0,1,1-12.654,12.652A12.654,12.654,0,0,1,265.727,717.735Zm30.546,0a12.652,12.652,0,1,1-12.655,12.652A12.654,12.654,0,0,1,296.273,717.735Zm0,53.226a12.652,12.652,0,1,1-12.655,12.652A12.653,12.653,0,0,1,296.273,770.961Zm-30.546,0a12.652,12.652,0,1,1-12.654,12.652A12.653,12.653,0,0,1,265.727,770.961Zm-15.709-26.177a12.652,12.652,0,1,1-12.654,12.652A12.654,12.654,0,0,1,250.018,744.784Zm61.964,0a12.652,12.652,0,1,1-12.655,12.652A12.653,12.653,0,0,1,311.982,744.784Zm14.4-21.813a7.853,7.853,0,1,1-7.855,7.853A7.853,7.853,0,0,1,326.382,722.971Zm0,52.352a7.853,7.853,0,1,1-7.855,7.853A7.853,7.853,0,0,1,326.382,775.323Zm-90.764,0a7.853,7.853,0,1,1-7.854,7.853A7.854,7.854,0,0,1,235.618,775.323Zm0-52.352a7.853,7.853,0,1,1-7.854,7.853A7.854,7.854,0,0,1,235.618,722.971ZM281,696.794a7.853,7.853,0,1,1-7.855,7.853A7.853,7.853,0,0,1,281,696.794ZM281,801.5a7.853,7.853,0,1,1-7.855,7.853A7.853,7.853,0,0,1,281,801.5Zm33.6,7.853a6.544,6.544,0,1,1-6.546,6.544A6.544,6.544,0,0,1,314.6,809.353Zm-67.2,0a6.544,6.544,0,1,1-6.546,6.544A6.544,6.544,0,0,1,247.4,809.353Zm0-117.794a6.544,6.544,0,1,1-6.546,6.544A6.544,6.544,0,0,1,247.4,691.559Zm67.2,0a6.544,6.544,0,1,1-6.546,6.544A6.544,6.544,0,0,1,314.6,691.559Zm34.036,58.461a6.544,6.544,0,1,1-6.545,6.544A6.545,6.545,0,0,1,348.636,750.02Zm-135.273,0a6.544,6.544,0,1,1-6.545,6.544A6.544,6.544,0,0,1,213.363,750.02Zm-4.8-40.138a5.236,5.236,0,1,1-5.236,5.235A5.236,5.236,0,0,1,208.563,709.882Zm0,83.765a5.236,5.236,0,1,1-5.236,5.235A5.236,5.236,0,0,1,208.563,793.647Zm144.873,0a5.236,5.236,0,1,1-5.236,5.235A5.236,5.236,0,0,1,353.436,793.647Zm0-83.765a5.236,5.236,0,1,1-5.236,5.235A5.236,5.236,0,0,1,353.436,709.882ZM281,668a5.236,5.236,0,1,1-5.237,5.235A5.235,5.235,0,0,1,281,668Zm0,167.529a5.236,5.236,0,1,1-5.237,5.236A5.236,5.236,0,0,1,281,835.529Zm46.254-3.49a4.363,4.363,0,1,1-4.363,4.363A4.363,4.363,0,0,1,327.254,832.039Zm-92.509,0a4.363,4.363,0,1,1-4.363,4.363A4.363,4.363,0,0,1,234.745,832.039Zm0-158.8a4.363,4.363,0,1,1-4.363,4.363A4.363,4.363,0,0,1,234.745,673.235Zm92.509,0a4.363,4.363,0,1,1-4.363,4.363A4.363,4.363,0,0,1,327.254,673.235Zm45.382,79.4A4.363,4.363,0,1,1,368.273,757,4.363,4.363,0,0,1,372.636,752.637Zm-183.273,0A4.363,4.363,0,1,1,185,757,4.363,4.363,0,0,1,189.363,752.637Z" data-name="Эллипс 6 копия 29" id="Эллипс_6_копия_29" transform="translate(-152 -629)"/></g></g></svg>
